X:2297
T:Bull Beer
R:strathspey
C:Paul S. Cranford
O:20th Century Cape Breton
D:The Lighthouse, Cranford Publications
B:The Lighthouse Collection, ISBN 0-9691181-5-5
N:Contacts ...
N:..... Cranford Publications <http://www.cranfordpub.com>
Z:This abc transcription is for personal use only,
Z:provided this notice remains attached.
Z:Used by permission of the composer and publisher.
Z:Paul Stewart Cranford <psc@cranfordpub.com>
Q:266
L:1/8
M:C
K:Edor
E>ed>e B<EG>A|B<EG>B A/G/F/E/ D>F|E>ed>e B<EG>c|d>DF>B A/G/F/E/ D>F|!
E>ed>e B<EG>A|B<EG>B A/G/F/E/ D>F|E>ed>e g>eB<e|d>DF>B A/G/F/E/ D>||!
=46|G>dB>g d<G B2|d>GB>G A/G/F/E/ D>F|G>dB>g d<G B>c|d>DF>B A/G/F/E/ D>F|!
G>dB>g d<G B2|d>GB>G A/G/F/E/ D>f|g>eB<e d<eB>e|d>DF>B A/G/F/E/ D>|]!


